X:6622
T:Guns of the Magnificent Seven, The
T:Fintan McManus's
S:Carol.
R:Reel
O:Ireland
M:4/4
D:Altan "Island Angel"
C:Fintan McManus
K:Bm
FBBA BcdB|FBGB AFED|FBBA Bcde|faec dBB2:|*
|:Bcde fB B/2B/2B|faed cAAc|Bcde f2bf|afeg fdd2:|*
|:faec B2f2|\
M:3/4
ec AB ce|\
M:4/4
faec B2bf|afec cBAc:|**
